X: 20863
T: The REAL IRISH QUADRILLES No 3. -- la Poule.
P: A Donnybrook Row.
%R: jig
B: W. Hamilton "Universal Tune-Book" Vol. 2 Glasgow 1846 p.86 #3
S: http://s3-eu-west-1.amazonaws.com/itma.dl.printmaterial/book_pdfs/hamiltonvol2web.pdf
Z: 2016 John Chambers <jc:trillian.mit.edu>
M: 6/8
L: 1/8
K: G
% - - - - - - - - - - - - - - - - - - - - - - - - -
G/A/ !segno!|\
(B>cd) gdc | B2G G2B | (cde) (Aag) | f2d d2f |\
gdB ecA | (afd) (bag) | (fga) (dgf) | g2G "^Fin."G2 H:|
B |\
(ceg) (gec) | (Bdg) (gdB) | cBc Aag | f2d d2c |\
(Bdg) (cea) | (dfa) bag | (dcB) (Aa)g | g2G "^D.C."G2 |]
[K:=f] f |\
edc g2f | edc BAG | c2e d2f | e2g d2f |\
edc g2f | edc BAG | ced efg | agf e"^D.C. al"dc !segno!|]
% - - - - - - - - - - - - - - - - - - - - - - - - -

% (Continued from previous page)

%%sep 1 1 500
%%sep 1 1 500

